X:1
T:James Gibb editions
T:Sapet'amanti - Arcadelt
T:#
%%score [ 1 2 3 4 ]
L:1/8
Q:1/4=121
M:4/4
K:Eb
V:1 treble nm="Soprano" snm="S"
V:2 treble nm="Alto" snm="A"
V:3 treble-8 nm="Tenor" snm="T"
V:4 bass nm="Bass" snm="B"
V:1
"^Sapet'amanti""^Jacques Arcadelt\n(1505-68)" z4 c4 | e2 c2 (e4 | d4) c4 | z8 |[M:4/4] z4 z2 c2 | %5
w: Sa-|pe- t'a- man\-|* ti||per|
 c2 c2 c4 | B4 B4 | z2 G2 B2 B2 | A2 A2 c4 | B4 B4 | G2 B2 A4 | G2 e4 d2 | c2 B2 A4 | G8 | %14
w: ch'a- mor' è|cie- co?|Per- chè mi-|ran- do fi-|so gli~~oc-|chi se- re-|ni di ma-|don- na me-|co|
 z2 e2 e2 e2 | d2 B2 c4 | B8 | z4 z2 c2 | c2 =B2 c2 c2 | A4 G4 | z2 c2 c2 =B2 | c2 c2 A4 | G8- | %23
w: el- la col|suo bel vi-|so|e|col di- vin splen-|do- re,|e col di-|vin splen- do-|re,|
 G8 | z4 z2 G2 | G2 E2 F2 F2 | G2 c2 c2 =B2 | c2 c2 A4 | G2 B2 A2 G2 | F2 F2 z4 | z2 B2 B2 A2 | %31
w: |e|col di- vin splen-|do- re,~e col di-|vin splen- do-|re, tol- s'a lui|gli~~oc- chi|tol- s'a lui|
 B2 B2 c3 B | A2 B2 G4 | F4 z4 | z2 B2 B2 A2 | B2 B2 c3 B | A2 (G4 F2) | %37
w: gli~~oc- chi~~et a me|tols' il co-|re,|tol- s'a lui|gli~~oc- chi~~et a me|tols' il *|
[Q:1/4=118] G4[Q:1/4=114] G2[Q:1/4=112] e2- |[Q:1/4=109] e2[Q:1/4=107] d2[Q:1/4=104] c4 | %39
w: co- re, tols'|* il co-|
[Q:1/4=102] !fermata!=B8 |] %40
w: re.|
V:2
 C4 E2 F2 | (G2 A2 G2 c2- | c2 =B2) c4 | z8 |[M:4/4] z4 G4 | G2 G2 A4 | F4 G4- | G4 z2 B,2 | %8
w: Sa- pe- t'a-|man\- * * *|* * ti||per|ch'a- mor' è|cie- co?|* Per-|
 C6 C2 | D2 D2 E4 | B,2 E2 E2 D2 | E2 E2 B3 A | G4 (E2 F2) | D4 E4 | E4 E2 E2 | F2 G2 A4 | %16
w: chè mi-|ran- do fi-|so gli~~oc- chi se-|re- ni di ma-|don- na *|me- co|el- la col|suo bel vi-|
 G4 z2 G2 | F2 (E4 DC) | G4 E4 | z2 C2 C2 B,2 | C2 (C2 G4) | E2 G2 G2 F2 | G2 G2 E4 | D4 z4 | %24
w: so, col|suo bel * *|vi- so|e col di-|vin splen\- *|do- re,~e col di-|vin splen- do-|re,|
 z2 C2 C2 =B,2 | C2 C2 A,4 | G,2 G2 G2 G2 | E2 E2 (F4 | D4) C4 | z4 z2 F2 | F2 E2 F2 F2 | %31
w: e col di-|vin splen- do-|re, e col di-|vin splen- do\-|* re,|tol-|s'a lui gli~~oc- chi~~et|
 G3 F E2 C2 | D4 C4 | z4 z2 F2 | F2 E2 F2 F2 | G3 F E2 F2 | F2 G2 z2 C2 | C2 B,2 E3 F | G8 | %39
w: a me tols' il|co- re,|tol-|s'a lui gli~~oc- chi~~et|a me tols' il|co- re, et|a me tols' il|co-|
 !fermata!G8 |] %40
w: re.|
V:3
 z8 | z8 | z4 c4 | e2 c2 (e4 |[M:4/4][K:treble-8] d4 c2 e2 | e2 e2 f2 (e2- | e2 d2) e2 B2 | %7
w: ||Sa-|pe- t'a- man\-|* ti per|ch'a- mor' è cie\-|* * co? Per-|
 e2 e2 d2 d2 | f4 e4 | z2 B2 B4- | B2 B2 c2 A2 | B2 g4 f2 | e2 d3 c) (c2- | c2 =B2) c4- | c8 | z8 | %16
w: chè mi- ran- do|fi- so|gli oc\-|* chi se- re-|ni di ma-|don- na * me\-|* * co|||
 z2 e2 e2 e2 | d2 B2 c4 | d4 z2 c2 | f2 f2 d2 (e2- | e2 f2) d4 | c4 F4 | c8 | G4 z2 g2 | %24
w: el- la col|suo bel vi-|so e|col di- vin splen\-|* * do-|re, splen-|do-|re, e|
 g2 f2 g2 g2 | e4 c2 c2 | e2 e2 e2 d2 | c4 F4 | z2 f2 f2 e2 | f2 B2 d2 c2 | d2 B2 c4 | (e3 d c4) | %32
w: col di- vin splen-|do- re, e|col di- vin splen-|do- re,|tol- s'a lui|gli~~oc- chi~~et a me|tols' il co-|re, * *|
 z2 f2 f2 e2 | f2 B2 d2 c2 | d2 B2 c4 | e3 d c2 c2- | c2 e4 (dc) | d4 c2 c2- | c2 d2 e4 | %39
w: tol- s'a lui|gli~~oc- chi~~et a me|tols' il co-|re, et a me|* tols' il *|co- re, tols'|* il co-|
 !fermata!d8 |] %40
w: re.|
V:4
 z8 | z8 | G,4 A,2 F,2 | (G,2 A,2 G,2 C2- |[M:4/4] C2 =B,2) C2 C2 | C2 C2 A,4 | B,4 E,4 | %7
w: ||Sa- pe- t'a-|man\- * * *|* * ti per|ch'a- mor' è|cie- co?|
 z2 E,2 G,2 G,2 | F,2 F,2 A,4 | G,4 z2 E,2 | E,2 G,2 F,4 | E,2 E,4 B,2 | C2 (G,2 A,2) F,2 | %13
w: Per- chè mi-|ran- do fi-|so gli~~oc-|chi se- re-|ni di ma-|don- na * me\-|
 G,4 C,4- | C,8 | z8 | E,4 E,2 E,2 | F,2 G,2 A,4 | G,4 z4 | F,4 G,2 G,2 | A,2 F,2 G,4 | C,4 z4 | %22
w: * co|||el- la col|suo bel vi-|so|e col di-|vin splen- do-|re,|
 z4 z2 C2 | C2 =B,2 C2 C2 | A,4 G,4 | C,4 F,2 F,2 | E,2 C,2 G,4 | C,4 z2 C2 | C2 B,2 C2 C2 | %29
w: e|col di- vin splen-|do- re,|e col di-|vin splen- do-|re, tol-|s'a lui gli~~oc- chi~~et|
 D3 C B,2 A,2 | G,4 F,4 | z4 z2 C2 | C2 B,2 C2 C2 | D3 C B,2 A,2 | G,4 F,4 | z4 z2 F,2 | %36
w: a me tols' il|co- re,|tol-|s'a lui gli~~oc- chi~~et|a me tols' il|co- re,|et|
 F,2 E,2 A,2 A,2 | G,4 C,2 C,2- | C,2 =B,,2 C,4 | !fermata!G,8 |] %40
w: a me tols' il|co- re, tols'|* il co-|re.|

